src/assets/images/comprehensive/empty-earnings-bucket.svg

<?xml version="1.0" encoding="UTF-8"?>
<svg width="117px" height="112px" viewBox="0 0 117 112" version="1.1" xmlns="http://www.w3.org/2000/svg" xmlns:xlink="http://www.w3.org/1999/xlink">
    <!-- Generator: Sketch 53.2 (72643) - https://sketchapp.com -->
    <title>Bucket/Income/0%</title>
    <desc>Created with Sketch.</desc>
    <defs>
        <ellipse id="path-1" cx="14.4939516" cy="14.1951945" rx="14.4939516" ry="14.1951945"></ellipse>
        <polygon id="path-3" points="0 0 20.546371 0 20.546371 26.362504 0 26.362504"></polygon>
    </defs>
    <g id="Bucket/Income/0%" stroke="none" stroke-width="1" fill="none" fill-rule="evenodd">
        <rect fill="#00A7A7" x="0" y="0" width="117" height="112"></rect>
        <path d="M8,3 L99,3 L90.5845327,101.510702 C90.3193303,104.615137 87.7220495,107 84.6063069,107 L21.5569872,107 C18.421788,107 15.8151481,104.58619 15.574664,101.460227 L8,3 Z" id="Path-4" fill="#FFFFFF" opacity="0.83"></path>
        <path d="M19,78 C20.7879288,88.0547261 22.0459572,93.5308892 22.7740853,94.4284892 C23.8662774,95.7748894 24.824729,96.3344619 26.2482584,96.6064804 C27.6717877,96.8784989 43.3969081,96.7478654 53.4316334,96.7478654 C63.7209115,96.7478654 79.569998,96.8109994 80.490613,96.6064804 C81.4112281,96.4019614 82.4500926,95.7522496 83.5887523,94.4284892 C84.3478588,93.5459823 85.4950119,88.0698192 87.0302116,78 L84.814934,92.3214139 C84.3625199,95.2461985 81.8450196,97.4042245 78.8854515,97.4042245 L27.5384946,97.4042245 C24.639231,97.4042245 22.1546976,95.3311138 21.6354903,92.4787194 L19,78 Z" id="Path-4" fill="#8999E7" opacity="0.283063616"></path>
        <rect id="Rectangle" fill="#004472" x="0" y="0" width="107" height="8" rx="4"></rect>
        <g id="Group-5-Copy" transform="translate(39.000000, 36.000000)">
            <g id="Group-12">
                <g id="Group-4">
                    <g id="Group-9" transform="translate(0.000000, 0.121348)">
                        <mask id="mask-2" fill="white">
                            <use xlink:href="#path-1"></use>
                        </mask>
                        <use id="Mask" fill="#005150" xlink:href="#path-1"></use>
                        <g mask="url(#mask-2)" id="Group-8">
                            <g transform="translate(-6.689516, 7.175593)">
                                <g>
                                    <path d="M1.12306098,21.9947519 L37.2620197,21.9947519 C36.9724145,31.6926806 28.9932828,39.4657605 19.1925403,39.4657605 C9.39179781,39.4657605 1.41266618,31.6926806 1.12306098,21.9947519 Z" id="Combined-Shape-Copy-2" fill="#008181" transform="translate(19.192540, 30.730256) rotate(-315.000000) translate(-19.192540, -30.730256) "></path>
                                    <g id="Group-7" transform="translate(12.264113, 0.000000)">
                                        <g id="Group-6">
                                            <path d="M9.7191052,13.8832122 L25.9583142,13.8832122 C25.8331288,18.211798 22.2457765,21.6827696 17.8387097,21.6827696 C13.4316429,21.6827696 9.84429054,18.211798 9.7191052,13.8832122 Z" id="Combined-Shape-Copy" fill="#FF9445" transform="translate(17.838710, 17.782991) rotate(-30.000000) translate(-17.838710, -17.782991) "></path>
                                            <g id="Group">
                                                <g id="Group-3">
                                                    <mask id="mask-4" fill="white">
                                                        <use xlink:href="#path-3"></use>
                                                    </mask>
                                                    <g id="Clip-2"></g>
                                                    <path d="M17.8817878,24.9585837 L17.8817878,8.57576497 C17.8817878,8.25924678 17.8640629,7.94661952 17.8296457,7.63906738 C17.6876745,6.36842704 17.8028002,5.08729813 18.1307966,3.85049191 C18.1917151,3.62025073 18.2478152,3.38138185 18.3006457,3.1337161 C18.4367659,2.49678881 17.746528,2.0026415 17.173825,2.32930992 C16.9170724,2.47598083 16.6499946,2.61791496 16.3830888,2.74445456 C16.0435627,2.9053358 15.6407088,2.83445332 15.3765565,2.57003968 C13.793019,0.985249544 11.5908315,0 9.15804849,0 C6.72526547,0 4.52359425,0.985080374 2.93988469,2.56936299 C2.67590441,2.83377663 2.27270637,2.90465911 1.93318024,2.74360871 C1.66696285,2.61740744 1.40057337,2.47564249 1.14416488,2.32930992 C0.571633999,2.0026415 -0.118603866,2.49661964 0.017344255,3.13354693 C0.0700026411,3.37952097 0.125586493,3.61669815 0.18598876,3.84541679 C0.513468854,5.08222301 0.629454972,6.36318276 0.486623402,7.63348475 C0.451861984,7.94289777 0.433965016,8.25721674 0.433965016,8.57576497 L0.433965016,12.8212702 C0.433965016,18.217643 3.71977948,22.8711877 8.42633784,24.9585837 L2.16893838,24.9585837 L20.546371,24.9585837 L17.8817878,24.9585837 Z" id="Fill-1" fill="#00BCBC" mask="url(#mask-4)"></path>
                                                </g>
                                                <path d="M12.7475018,4.211761 C11.0964499,4.211761 9.69038068,5.24752789 9.15826613,6.69715963 C8.62615158,5.24752789 7.22025437,4.211761 5.56920254,4.211761 C3.46104487,4.211761 1.75201613,5.90019361 1.75201613,7.98277512 C1.75201613,12.2752419 2.17127353,15.755106 9.15826613,15.755106 C15.7573123,15.755106 16.5645161,12.2752419 16.5645161,7.98277512 C16.5645161,5.90019361 14.8554874,4.211761 12.7475018,4.211761" id="Fill-4" fill="#FFFFFF" opacity="0.901283482"></path>
                                            </g>
                                        </g>
                                    </g>
                                </g>
                            </g>
                        </g>
                    </g>
                </g>
                <path d="M15.5401945,19.952378 L16.3879338,18.4150393 C16.482574,18.243512 16.4546265,18.0277597 16.3199706,17.8884713 L15.0722865,16.5954038 C14.9001556,16.4170568 14.6094598,16.4170568 14.4375406,16.5954038 L13.1896447,17.8884713 C13.0549888,18.0277597 13.0270414,18.243512 13.1216816,18.4150393 L13.9694209,19.952378 C14.3060606,20.5630563 15.2035548,20.5630563 15.5401945,19.952378" id="Fill-10" fill="#FFA32C"></path>
            </g>
            <g id="Group-14" transform="translate(11.000000, 15.000000)" fill="#007F7E">
                <circle id="Oval-7" cx="6.91882106" cy="1" r="1"></circle>
                <circle id="Oval-7-Copy" cx="1" cy="1" r="1"></circle>
            </g>
        </g>
        <polygon id="Rectangle" fill-opacity="0.704427083" fill="#FFFFFF" transform="translate(23.440560, 37.108611) rotate(-4.000000) translate(-23.440560, -37.108611) " points="18.0111121 12.3391357 29.1672384 12.8346275 17.7138814 61.8780866"></polygon>
    </g>
</svg>

<svg xmlns="http://www.w3.org/2000/svg" xmlns:xlink="http://www.w3.org/1999/xlink" width="117" height="112" viewBox="0 0 117 112">
    <defs>
        <ellipse id="a" cx="14.494" cy="14.195" rx="14.494" ry="14.195"/>
        <path id="c" d="M0 0h20.546v26.363H0z"/>
    </defs>
    <g fill="none" fill-rule="evenodd">
        <path fill="#00A7A7" d="M0 0h117v112H0z"/>
        <path fill="#FFF" d="M8 3h91l-8.415 98.51a6 6 0 0 1-5.979 5.49H21.557a6 6 0 0 1-5.982-5.54L8 3z" opacity=".83"/>
        <path fill="#8999E7" d="M19 78c1.788 10.055 3.046 15.53 3.774 16.428 1.092 1.347 2.05 1.906 3.474 2.178 1.424.272 17.149.142 27.184.142 10.289 0 26.138.063 27.059-.142.92-.204 1.96-.854 3.098-2.178.759-.882 1.906-6.358 3.441-16.428l-2.215 14.321a6 6 0 0 1-5.93 5.083H27.538a6 6 0 0 1-5.903-4.925L19 78z" opacity=".283"/>
        <rect width="107" height="8" fill="#004472" rx="4"/>
        <g transform="translate(39 36.121)">
            <mask id="b" fill="#fff">
                <use xlink:href="#a"/>
            </mask>
            <use fill="#005150" xlink:href="#a"/>
            <g mask="url(#b)">
                <path fill="#008181" d="M5.903 18.952l25.554 25.554c-7.062 6.653-18.2 6.507-25.13-.423-6.931-6.93-7.077-18.069-.424-25.131z"/>
                <path fill="#FF9445" d="M14.432 25.641l14.063-8.12c2.056 3.812.685 8.611-3.132 10.815-3.816 2.203-8.659.991-10.931-2.695z"/>
                <g transform="translate(5.575 7.176)">
                    <mask id="d" fill="#fff">
                        <use xlink:href="#c"/>
                    </mask>
                    <path fill="#00BCBC" d="M17.882 24.959V8.576c0-.317-.018-.63-.052-.937a10.307 10.307 0 0 1 .3-3.789c.062-.23.118-.469.17-.716.137-.637-.553-1.131-1.126-.805-.257.147-.524.289-.79.415a.886.886 0 0 1-1.007-.174A8.768 8.768 0 0 0 9.158 0 8.77 8.77 0 0 0 2.94 2.57a.886.886 0 0 1-1.007.174 11.831 11.831 0 0 1-.789-.415c-.572-.326-1.263.168-1.127.805.053.246.109.483.169.711.327 1.237.443 2.518.3 3.788-.034.31-.052.624-.052.943v4.245c0 5.397 3.286 10.05 7.992 12.138H2.17h18.377-2.664z" mask="url(#d)"/>
                </g>
                <path fill="#FFF" d="M18.322 11.387a3.816 3.816 0 0 0-3.59 2.486 3.816 3.816 0 0 0-3.588-2.486c-2.108 0-3.817 1.689-3.817 3.771 0 4.293.419 7.773 7.406 7.773 6.599 0 7.406-3.48 7.406-7.773 0-2.082-1.709-3.77-3.817-3.77" opacity=".901"/>
            </g>
        </g>
        <path fill="#FFA32C" d="M54.54 55.952l.848-1.537a.45.45 0 0 0-.068-.527l-1.248-1.293a.443.443 0 0 0-.634 0l-1.248 1.293a.45.45 0 0 0-.068.527l.847 1.537c.337.611 1.235.611 1.571 0"/>
        <g fill="#007F7E" transform="translate(50 51)">
            <circle cx="6.919" cy="1" r="1"/>
            <circle cx="1" cy="1" r="1"/>
        </g>
        <path fill="#FFF" fill-opacity=".704" d="M16.297 12.778l11.163-.284-8.004 49.723z"/>
    </g>
</svg>
